src/asset/logo_full_adaptive.svg

<svg width="144" height="24" viewBox="0 0 144 24" fill="none" xmlns="http://www.w3.org/2000/svg">
    <path d="M8.53661 6.7884C8.53661 7.68 8.22221 8.3604 7.59401 8.8284C6.96521 9.297 6.04541 9.531 4.83401 9.531H2.47301C2.12561 9.531 1.86461 9.213 1.93301 8.8722L2.63861 5.346C2.69021 5.0886 2.91641 4.9032 3.17861 4.9032H5.69081C7.58801 4.9032 8.53661 5.532 8.53661 6.7884ZM7.06241 14.7258C6.55961 14.3946 5.87381 14.2284 5.00501 14.2284H1.29401C1.03061 14.2284 0.804414 14.4144 0.753414 14.6724L0.0106139 18.4392C-0.0565861 18.7794 0.203814 19.0968 0.551214 19.0968H3.94241C5.15381 19.0968 6.10241 18.8568 6.78821 18.3768C7.47401 17.8968 7.81661 17.1888 7.81661 16.251C7.81661 15.5658 7.56461 15.057 7.06241 14.7258ZM25.1158 16.2516C25.1158 15.5658 24.8644 15.0576 24.3616 14.7258C23.8588 14.3946 23.173 14.2284 22.3042 14.2284H18.1402L17.1802 19.0968H21.241C22.4524 19.0968 23.401 18.8568 24.0868 18.3768C24.7726 17.8968 25.1158 17.1888 25.1158 16.2516ZM25.8364 6.7884C25.8364 5.5314 24.8878 4.9026 22.9906 4.9026H20.0266L19.1008 9.531H22.1332C23.3446 9.531 24.2644 9.297 24.8932 8.8284C25.5214 8.3604 25.8364 7.68 25.8364 6.7884ZM31.0306 13.5258C31.5904 14.3376 31.8706 15.2916 31.8706 16.3884C31.8706 18.8802 30.8536 20.7714 28.819 22.0626C26.7844 23.3544 24.133 24 20.8648 24H7.68341C7.55621 24 7.46021 23.8836 7.48481 23.7588C7.50041 23.6796 7.56101 23.6166 7.63961 23.5998C9.11621 23.2794 10.4092 22.7676 11.5192 22.0632C13.5532 20.772 14.5708 18.8808 14.5708 16.389C14.5708 15.2916 14.2906 14.3376 13.7308 13.5264C13.2946 12.8958 12.718 12.3714 11.9986 11.955C11.7472 11.8092 11.755 11.4456 12.013 11.3118C13.0468 10.7748 13.8766 10.0848 14.5024 9.2412C15.2566 8.2242 15.634 7.0188 15.634 5.6238C15.634 3.8184 14.9194 2.43 13.4914 1.458C13.1314 1.2132 12.7306 0.999 12.2902 0.816C12.1042 0.7386 11.9986 0.5412 12.037 0.3438C12.0748 0.144 12.2494 0 12.4522 0H24.6016C27.2986 0 29.3614 0.486 30.79 1.4574C32.218 2.4294 32.9326 3.8178 32.9326 5.6232C32.9326 7.0176 32.5552 8.2236 31.801 9.2406C31.0468 10.2576 29.995 11.0526 28.6468 11.6238C29.6758 12.0804 30.4702 12.7146 31.0306 13.5258Z" fill="currentColor"/>
    <path d="M53.6658 13.4009C53.9682 13.8395 54.1194 14.3735 54.1194 15.0035C54.1194 16.3499 53.5884 17.3687 52.5264 18.0599C51.4638 18.7517 50.0502 19.0973 48.2844 19.0973H41.4864L44.0796 6.13013H50.3412C51.7368 6.13013 52.8108 6.38633 53.5644 6.89873C54.3174 7.41113 54.6948 8.14313 54.6948 9.09413C54.6948 9.88433 54.4878 10.5605 54.0744 11.1227C53.6604 11.6849 53.0952 12.1139 52.3794 12.4103C52.9344 12.6317 53.3628 12.9623 53.6658 13.4009ZM50.4336 16.3553C50.9028 16.0343 51.1374 15.5711 51.1374 14.9657C51.1374 14.0765 50.4894 13.6319 49.1922 13.6319H45.5616L44.9322 16.8365H48.4704C49.3098 16.8371 49.9638 16.6769 50.4336 16.3553ZM46.5984 8.38973L45.9876 11.4461H49.044C49.8342 11.4461 50.4492 11.2889 50.8872 10.9739C51.3252 10.6589 51.5448 10.2053 51.5448 9.61253C51.5448 8.79773 50.9088 8.38973 49.6368 8.38973H46.5984Z" fill="#FFB560"/>
    <path d="M57.4548 9.13075H60.3264L58.344 19.0974H55.4724L57.4548 9.13075ZM58.1676 7.30615C57.8526 7.01635 57.6954 6.66115 57.6954 6.24115C57.6954 5.74735 57.8712 5.33635 58.2228 5.00935C58.575 4.68235 59.0346 4.51855 59.6034 4.51855C60.1092 4.51855 60.5202 4.65775 60.8352 4.93555C61.1502 5.21335 61.3074 5.55595 61.3074 5.96335C61.3074 6.49435 61.1286 6.92395 60.7704 7.25095C60.4122 7.57855 59.949 7.74175 59.3808 7.74175C58.8864 7.74175 58.4826 7.59655 58.1676 7.30615Z" fill="#FFB560"/>
    <path d="M64.9565 15.5778C64.9313 15.6768 64.9193 15.8124 64.9193 15.9852C64.9193 16.6272 65.2715 16.9482 65.9753 16.9482C66.3581 16.9482 66.7469 16.8312 67.1429 16.596L67.5689 18.6522C66.9269 19.0476 66.0989 19.245 65.0867 19.245C64.1483 19.245 63.3947 18.9984 62.8265 18.504C62.2589 18.0102 61.9745 17.331 61.9745 16.4664C61.9745 16.2198 62.0051 15.9294 62.0669 15.5958L62.8631 11.5758H61.3253L61.7699 9.35278H63.3077L63.7889 6.92578H66.6791L66.1979 9.35278H68.6801L68.2361 11.5758H65.7539L64.9565 15.5778Z" fill="#FFB560"/>
    <path d="M71.3478 18.6893C70.5822 18.3191 69.9924 17.7971 69.579 17.1239C69.165 16.4507 68.9586 15.6695 68.9586 14.7803C68.9586 13.6811 69.2178 12.6935 69.7362 11.8163C70.2546 10.9397 70.9776 10.2479 71.9034 9.74153C72.8298 9.23513 73.8732 8.98193 75.0342 8.98193C76.0968 8.98193 77.013 9.20153 77.7852 9.63953C78.5568 10.0781 79.134 10.6985 79.5168 11.5013L77.0718 12.7241C76.6398 11.8229 75.8982 11.3717 74.8494 11.3717C74.2812 11.3717 73.7718 11.5109 73.3206 11.7887C72.87 12.0665 72.5178 12.4529 72.2646 12.9467C72.0114 13.4405 71.8848 14.0027 71.8848 14.6327C71.8848 15.3119 72.0888 15.8525 72.4962 16.2539C72.9036 16.6553 73.4718 16.8557 74.2002 16.8557C75.2628 16.8557 76.0776 16.4111 76.6452 15.5219L78.7758 16.8557C78.294 17.6093 77.6364 18.1961 76.803 18.6155C75.9696 19.0355 75.0456 19.2455 74.0334 19.2455C73.0086 19.2455 72.1134 19.0601 71.3478 18.6893Z" fill="#FFB560"/>
    <path d="M82.1567 18.6893C81.3971 18.3191 80.8103 17.7971 80.3969 17.1239C79.9835 16.4507 79.7765 15.6695 79.7765 14.7803C79.7765 13.6811 80.0357 12.6935 80.5547 11.8163C81.0731 10.9397 81.7895 10.2479 82.7033 9.74153C83.6171 9.23513 84.6485 8.98193 85.7969 8.98193C86.8097 8.98193 87.6923 9.16733 88.4459 9.53753C89.1989 9.90833 89.7827 10.4297 90.1961 11.1029C90.6095 11.7761 90.8165 12.5573 90.8165 13.4465C90.8165 14.5457 90.5603 15.5339 90.0479 16.4105C89.5355 17.2877 88.8191 17.9789 87.8993 18.4853C86.9789 18.9917 85.9451 19.2449 84.7961 19.2449C83.7965 19.2455 82.9163 19.0601 82.1567 18.6893ZM86.4821 16.4387C86.9267 16.1609 87.2723 15.7751 87.5195 15.2807C87.7667 14.7869 87.8903 14.2187 87.8903 13.5767C87.8903 12.8975 87.6923 12.3605 87.2975 11.9651C86.9021 11.5697 86.3465 11.3723 85.6301 11.3723C85.0625 11.3723 84.5555 11.5115 84.1109 11.7893C83.6669 12.0671 83.3207 12.4535 83.0735 12.9473C82.8263 13.4411 82.7033 14.0099 82.7033 14.6513C82.7033 15.3305 82.9037 15.8681 83.3051 16.2629C83.7059 16.6583 84.2651 16.8557 84.9815 16.8557C85.5377 16.8557 86.0375 16.7165 86.4821 16.4387Z" fill="#FFB560"/>
    <path d="M93.6882 9.13075H96.5598L94.5774 19.0974H91.7057L93.6882 9.13075ZM94.4016 7.30615C94.0866 7.01635 93.9294 6.66115 93.9294 6.24115C93.9294 5.74735 94.1052 5.33635 94.4568 5.00935C94.809 4.68235 95.2686 4.51855 95.8374 4.51855C96.3432 4.51855 96.7542 4.65775 97.0692 4.93555C97.3842 5.21335 97.5414 5.55595 97.5414 5.96335C97.5414 6.49435 97.3626 6.92395 97.0044 7.25095C96.6462 7.57855 96.183 7.74175 95.6148 7.74175C95.1204 7.74175 94.7166 7.59655 94.4016 7.30615Z" fill="#FFB560"/>
    <path d="M107.693 9.86275C108.347 10.4496 108.674 11.2866 108.674 12.3732C108.674 12.7806 108.631 13.182 108.545 13.5774L107.434 19.098H104.543L105.618 13.7628C105.667 13.5528 105.692 13.3248 105.692 13.0776C105.692 12.5586 105.55 12.1638 105.266 11.892C104.982 11.6208 104.556 11.4846 103.988 11.4846C103.247 11.4846 102.632 11.6976 102.145 12.1236C101.657 12.5496 101.326 13.1886 101.153 14.0406L100.153 19.098H97.2624L99.2448 9.13136H101.986L101.764 10.206C102.653 9.39116 103.747 8.98316 105.043 8.98316C106.155 8.98256 107.038 9.27595 107.693 9.86275Z" fill="#FFB560"/>
    <path d="M122.429 13.4009C122.731 13.8395 122.883 14.3735 122.883 15.0035C122.883 16.3499 122.352 17.3687 121.289 18.0599C120.227 18.7517 118.814 19.0973 117.047 19.0973H110.249L112.842 6.13013H119.104C120.499 6.13013 121.573 6.38633 122.327 6.89873C123.08 7.41113 123.457 8.14313 123.457 9.09413C123.457 9.88433 123.25 10.5605 122.837 11.1227C122.423 11.6849 121.858 12.1139 121.142 12.4103C121.697 12.6317 122.126 12.9623 122.429 13.4009ZM119.197 16.3553C119.665 16.0343 119.9 15.5711 119.9 14.9657C119.9 14.0765 119.252 13.6319 117.956 13.6319H114.325L113.695 16.8365H117.233C118.072 16.8371 118.727 16.6769 119.197 16.3553ZM115.362 8.38973L114.751 11.4461H117.808C118.598 11.4461 119.212 11.2889 119.651 10.9739C120.089 10.6589 120.308 10.2053 120.308 9.61253C120.308 8.79773 119.672 8.38973 118.4 8.38973H115.362Z" fill="#FFB560"/>
    <path d="M126.8 18.6893C126.041 18.3191 125.454 17.7971 125.041 17.1239C124.627 16.4507 124.42 15.6695 124.42 14.7803C124.42 13.6811 124.679 12.6935 125.198 11.8163C125.717 10.9397 126.433 10.2479 127.347 9.74153C128.261 9.23513 129.292 8.98193 130.441 8.98193C131.453 8.98193 132.336 9.16733 133.09 9.53753C133.843 9.90833 134.426 10.4297 134.84 11.1029C135.253 11.7761 135.46 12.5573 135.46 13.4465C135.46 14.5457 135.204 15.5339 134.692 16.4105C134.179 17.2877 133.463 17.9789 132.543 18.4853C131.623 18.9917 130.589 19.2449 129.44 19.2449C128.44 19.2455 127.561 19.0601 126.8 18.6893ZM131.126 16.4387C131.571 16.1609 131.917 15.7751 132.164 15.2807C132.411 14.7869 132.535 14.2187 132.535 13.5767C132.535 12.8975 132.337 12.3605 131.942 11.9651C131.546 11.5697 130.991 11.3723 130.274 11.3723C129.707 11.3723 129.2 11.5115 128.755 11.7893C128.311 12.0671 127.965 12.4535 127.718 12.9473C127.471 13.4411 127.348 14.0099 127.348 14.6513C127.348 15.3305 127.548 15.8681 127.949 16.2629C128.35 16.6583 128.909 16.8557 129.626 16.8557C130.181 16.8557 130.681 16.7165 131.126 16.4387Z" fill="#FFB560"/>
    <path d="M140.278 15.5778C140.252 15.6768 140.24 15.8124 140.24 15.9852C140.24 16.6272 140.593 16.9482 141.296 16.9482C141.679 16.9482 142.068 16.8312 142.464 16.596L142.89 18.6522C142.248 19.0476 141.42 19.245 140.408 19.245C139.469 19.245 138.716 18.9984 138.148 18.504C137.58 18.0102 137.296 17.331 137.296 16.4664C137.296 16.2198 137.326 15.9294 137.388 15.5958L138.184 11.5758H136.646L137.091 9.35278H138.629L139.11 6.92578H142L141.519 9.35278H144.001L143.557 11.5758H141.074L140.278 15.5778Z" fill="#FFB560"/>
</svg>

<svg width="144" height="24" fill="none" xmlns="http://www.w3.org/2000/svg"><path d="M8.537 6.788c0 .892-.315 1.572-.943 2.04-.629.469-1.549.703-2.76.703H2.473a.55.55 0 01-.54-.659l.706-3.526a.551.551 0 01.54-.443H5.69c1.897 0 2.846.629 2.846 1.885zm-1.475 7.938c-.502-.331-1.188-.498-2.057-.498H1.294a.55.55 0 00-.54.444L.01 18.44a.551.551 0 00.54.658h3.391c1.212 0 2.16-.24 2.846-.72.686-.48 1.029-1.188 1.029-2.126 0-.685-.252-1.194-.755-1.525zm18.054 1.526c0-.686-.252-1.194-.754-1.526-.503-.331-1.189-.498-2.058-.498H18.14l-.96 4.869h4.061c1.211 0 2.16-.24 2.846-.72.686-.48 1.029-1.188 1.029-2.125zm.72-9.464c0-1.257-.948-1.885-2.845-1.885h-2.964L19.1 9.53h3.032c1.212 0 2.131-.234 2.76-.703.628-.468.943-1.148.943-2.04zm5.195 6.738c.56.812.84 1.766.84 2.862 0 2.492-1.017 4.383-3.052 5.675C26.784 23.354 24.133 24 20.865 24H7.683a.202.202 0 01-.043-.4c1.476-.32 2.77-.832 3.88-1.537 2.033-1.291 3.05-3.182 3.05-5.674 0-1.097-.28-2.051-.84-2.863A5.289 5.289 0 0012 11.955a.366.366 0 01.014-.643c1.034-.537 1.864-1.227 2.49-2.07.754-1.018 1.131-2.223 1.131-3.618 0-1.806-.715-3.194-2.143-4.166a6.706 6.706 0 00-1.2-.642.424.424 0 01.161-.816h12.15c2.697 0 4.76.486 6.188 1.457 1.428.972 2.143 2.36 2.143 4.166 0 1.395-.378 2.6-1.132 3.618-.754 1.017-1.806 1.812-3.154 2.383 1.029.456 1.823 1.09 2.384 1.902z" fill="currentColor"/><path d="M53.666 13.4c.302.44.453.973.453 1.604 0 1.346-.53 2.365-1.593 3.056-1.062.692-2.476 1.037-4.242 1.037h-6.798L44.08 6.13h6.261c1.396 0 2.47.256 3.223.769.753.512 1.13 1.244 1.13 2.195 0 .79-.206 1.466-.62 2.029-.414.562-.979.99-1.695 1.287.555.222.984.552 1.287.99zm-3.232 2.955c.469-.32.703-.784.703-1.39 0-.889-.648-1.333-1.945-1.333h-3.63l-.63 3.205h3.538c.84 0 1.494-.16 1.964-.482zM46.598 8.39l-.61 3.056h3.056c.79 0 1.405-.157 1.843-.472.438-.315.658-.769.658-1.361 0-.815-.636-1.223-1.908-1.223h-3.039zM57.455 9.13h2.871l-1.982 9.967h-2.872l1.983-9.966zm.713-1.824a1.392 1.392 0 01-.473-1.065c0-.494.176-.905.528-1.232.352-.327.812-.49 1.38-.49.506 0 .917.139 1.232.417.315.277.472.62.472 1.027 0 .531-.178.96-.537 1.288-.358.328-.821.49-1.39.49-.494 0-.897-.144-1.212-.435zM64.957 15.578a1.73 1.73 0 00-.038.407c0 .642.353.963 1.056.963.383 0 .772-.117 1.168-.352l.426 2.056c-.642.396-1.47.593-2.482.593-.939 0-1.692-.247-2.26-.741-.568-.494-.852-1.173-.852-2.038 0-.246.03-.537.092-.87l.796-4.02h-1.538l.445-2.223h1.538l.48-2.427h2.891l-.481 2.427h2.482l-.444 2.223h-2.482l-.797 4.002zM71.348 18.69c-.766-.37-1.356-.893-1.769-1.566-.414-.673-.62-1.454-.62-2.344 0-1.099.259-2.086.777-2.964a5.566 5.566 0 012.167-2.074c.927-.507 1.97-.76 3.131-.76 1.063 0 1.979.22 2.751.658a4.145 4.145 0 011.732 1.861l-2.445 1.223c-.432-.901-1.174-1.352-2.223-1.352-.568 0-1.077.139-1.528.417-.451.277-.803.664-1.056 1.158-.254.494-.38 1.056-.38 1.686 0 .679.204 1.22.611 1.62.408.402.976.603 1.704.603 1.063 0 1.878-.445 2.445-1.334l2.13 1.334a4.909 4.909 0 01-1.972 1.76c-.833.42-1.757.63-2.77.63-1.024 0-1.92-.186-2.685-.557zM82.157 18.69c-.76-.37-1.347-.893-1.76-1.566-.413-.673-.62-1.454-.62-2.344 0-1.099.259-2.086.778-2.964a5.598 5.598 0 012.148-2.074c.914-.507 1.945-.76 3.094-.76 1.013 0 1.895.185 2.649.556.753.37 1.337.892 1.75 1.565.413.673.62 1.454.62 2.344 0 1.099-.256 2.087-.768 2.963a5.512 5.512 0 01-2.149 2.075c-.92.507-1.954.76-3.103.76-1 0-1.88-.185-2.64-.556zm4.325-2.251c.445-.278.79-.664 1.037-1.158.248-.494.371-1.062.371-1.704 0-.68-.198-1.216-.593-1.612-.395-.395-.95-.593-1.667-.593-.567 0-1.075.14-1.52.417-.443.278-.79.665-1.037 1.158-.247.494-.37 1.063-.37 1.704 0 .68.2 1.217.602 1.612.4.395.96.593 1.676.593.557 0 1.056-.14 1.501-.417zM93.688 9.13h2.872l-1.983 9.967h-2.871l1.982-9.966zm.714-1.824a1.392 1.392 0 01-.473-1.065c0-.494.176-.905.528-1.232.352-.327.812-.49 1.38-.49.506 0 .917.139 1.232.417.315.277.472.62.472 1.027 0 .531-.178.96-.537 1.288-.358.328-.821.49-1.39.49-.494 0-.897-.144-1.212-.435zM107.693 9.863c.654.587.981 1.424.981 2.51 0 .408-.043.809-.129 1.204l-1.111 5.521h-2.891l1.075-5.335a3.01 3.01 0 00.074-.685c0-.52-.142-.914-.426-1.186-.284-.271-.71-.407-1.278-.407-.741 0-1.356.213-1.843.639-.488.426-.819 1.065-.992 1.917l-1 5.057h-2.89l1.982-9.967h2.741l-.222 1.075c.889-.815 1.983-1.223 3.279-1.223 1.112 0 1.995.293 2.65.88zM122.429 13.4c.302.44.454.973.454 1.604 0 1.346-.531 2.365-1.594 3.056-1.062.692-2.475 1.037-4.242 1.037h-6.798l2.593-12.967h6.262c1.395 0 2.469.256 3.223.769.753.512 1.13 1.244 1.13 2.195 0 .79-.207 1.466-.62 2.029-.414.562-.979.99-1.695 1.287.555.222.984.552 1.287.99zm-3.232 2.955c.468-.32.703-.784.703-1.39 0-.889-.648-1.333-1.944-1.333h-3.631l-.63 3.205h3.538c.839 0 1.494-.16 1.964-.482zm-3.835-7.965l-.611 3.056h3.057c.79 0 1.404-.157 1.843-.472.438-.315.657-.769.657-1.361 0-.815-.636-1.223-1.908-1.223h-3.038zM126.8 18.69c-.759-.37-1.346-.893-1.759-1.566-.414-.673-.621-1.454-.621-2.344 0-1.099.259-2.086.778-2.964a5.602 5.602 0 012.149-2.074c.914-.507 1.945-.76 3.094-.76 1.012 0 1.895.185 2.649.556.753.37 1.336.892 1.75 1.565.413.673.62 1.454.62 2.344 0 1.099-.256 2.087-.768 2.963a5.516 5.516 0 01-2.149 2.075c-.92.507-1.954.76-3.103.76-1 0-1.879-.185-2.64-.556zm4.326-2.251a2.815 2.815 0 001.038-1.158c.247-.494.371-1.062.371-1.704 0-.68-.198-1.216-.593-1.612-.396-.395-.951-.593-1.668-.593a2.81 2.81 0 00-1.519.417c-.444.278-.79.665-1.037 1.158-.247.494-.37 1.063-.37 1.704 0 .68.2 1.217.601 1.612.401.395.96.593 1.677.593.555 0 1.055-.14 1.5-.417zM140.278 15.578a1.682 1.682 0 00-.038.407c0 .642.353.963 1.056.963.383 0 .772-.117 1.168-.352l.426 2.056c-.642.396-1.47.593-2.482.593-.939 0-1.692-.247-2.26-.741-.568-.494-.852-1.173-.852-2.038 0-.246.03-.537.092-.87l.796-4.02h-1.538l.445-2.223h1.538l.481-2.427H142l-.481 2.427h2.482l-.444 2.223h-2.483l-.796 4.002z" fill="#FFB560"/></svg>
